Obsidian-SemiLight/actions/22s/page-2sides.svg

<svg viewBox="0 0 22 22" xmlns="http://www.w3.org/2000/svg"><path d="m3 3v16h8 8v-16h-8zm1 1h6v14h-6zm7 0h7v14h-7z" fill="#4d4d4d"/></svg>

<svg xmlns="http://www.w3.org/2000/svg" viewBox="0 0 22 22">
  <defs id="defs3051">
    <style type="text/css" id="current-color-scheme">
      .ColorScheme-Text {
        color:#4d4d4d;
      }
      </style>
  </defs>
 <path 
     style="fill:currentColor;fill-opacity:1;stroke:none" 
     d="M 3 3 L 3 19 L 11 19 L 19 19 L 19 3 L 11 3 L 3 3 z M 4 4 L 10 4 L 10 18 L 4 18 L 4 4 z M 11 4 L 18 4 L 18 18 L 11 18 L 11 4 z "
	 class="ColorScheme-Text"
     />
</svg>
